src/lib/packages/icons/src/assets/filled/story.svg

<svg xmlns="http://www.w3.org/2000/svg" width="24" height="24" fill="none"><path fill="currentColor" d="M21 7.34v9.32c0 1.56-.78 2.34-2.34 2.34h-2.24c.05-.31.08-.65.08-1V6c0-.35-.03-.69-.08-1h2.24C20.22 5 21 5.78 21 7.34ZM15 18V6c0-2-1-3-3-3H6C4 3 3 4 3 6v12c0 2 1 3 3 3h6c2 0 3-1 3-3Z"/></svg>

<svg width="24" height="24" viewBox="0 0 24 24" fill="none" xmlns="http://www.w3.org/2000/svg">
<path d="M21 7.34V16.66C21 18.22 20.22 19 18.66 19H16.42C16.47 18.69 16.5 18.35 16.5 18V6C16.5 5.65 16.47 5.31 16.42 5H18.66C20.22 5 21 5.78 21 7.34ZM15 18V6C15 4 14 3 12 3H6C4 3 3 4 3 6V18C3 20 4 21 6 21H12C14 21 15 20 15 18Z" fill="currentColor"/>
</svg>
